Sources/FrostedUI/Resources/Icons.xcassets/locationPin20.imageset/location-pin-20.svg

<svg width="20" height="20" viewBox="0 0 20 20" fill="none" xmlns="http://www.w3.org/2000/svg" data-fui-icon="true">
  <path
    d="M10 0.5C14.1599 0.5 17.5 3.87587 17.5 8.25C17.5 9.65815 17.0245 11.0589 16.3604 12.3369C15.6938 13.6195 14.8136 14.8226 13.9482 15.8496C13.081 16.8789 12.2159 17.7462 11.5684 18.3555C11.2442 18.6605 10.9732 18.9021 10.7822 19.0684C10.6868 19.1515 10.6119 19.2166 10.5596 19.2607C10.5334 19.2828 10.5122 19.2998 10.498 19.3115C10.4911 19.3172 10.4853 19.322 10.4814 19.3252C10.4797 19.3266 10.4786 19.3282 10.4775 19.3291L10.4756 19.3301L10 18.75L10.4746 19.3301C10.1983 19.5561 9.80166 19.5561 9.52539 19.3301L10 18.75L9.52441 19.3301L9.52246 19.3291C9.52139 19.3282 9.52031 19.3266 9.51855 19.3252C9.5147 19.322 9.50886 19.3173 9.50195 19.3115C9.48778 19.2998 9.46661 19.2828 9.44043 19.2607C9.38808 19.2166 9.31322 19.1515 9.21777 19.0684C9.02684 18.9021 8.75584 18.6605 8.43164 18.3555C7.78413 17.7462 6.91902 16.8789 6.05176 15.8496C5.1864 14.8226 4.30622 13.6195 3.63965 12.3369C2.97548 11.0589 2.5 9.65815 2.5 8.25C2.5 3.87584 5.84012 0.5 10 0.5ZM10 2C6.70404 2 4 4.66832 4 8.25C4 9.33067 4.36841 10.4873 4.96973 11.6445C5.56873 12.7972 6.37623 13.9082 7.19824 14.8838C8.01847 15.8572 8.84088 16.682 9.45898 17.2637C9.66479 17.4573 9.84833 17.6225 10 17.7578C10.1517 17.6225 10.3352 17.4573 10.541 17.2637C11.1591 16.682 11.9815 15.8573 12.8018 14.8838C13.6237 13.9082 14.4303 12.7972 15.0293 11.6445C15.6307 10.4872 16 9.33077 16 8.25C16 4.66828 13.2959 2 10 2ZM10 4.5C11.933 4.5 13.5 6.067 13.5 8C13.5 9.933 11.933 11.5 10 11.5C8.067 11.5 6.5 9.933 6.5 8C6.5 6.067 8.067 4.5 10 4.5ZM10 6C8.89543 6 8 6.89543 8 8C8 9.10457 8.89543 10 10 10C11.1046 10 12 9.10457 12 8C12 6.89543 11.1046 6 10 6Z"
    fill="currentColor"
  />
</svg>

<svg xmlns="http://www.w3.org/2000/svg" width="20" height="20" fill="none" data-fui-icon="true" viewBox="0 0 20 20"><path fill="currentColor" d="M10 .5c4.16 0 7.5 3.376 7.5 7.75 0 1.408-.476 2.809-1.14 4.087-.666 1.283-1.546 2.486-2.412 3.513a30.4 30.4 0 0 1-3.388 3.41l-.062.051-.017.014-.004.004-.001.001-.476-.58.475.58a.75.75 0 0 1-.95 0l.475-.58-.476.58h-.002q0-.002-.003-.005l-.017-.014-.062-.05-.222-.193a30.376 30.376 0 0 1-3.166-3.219c-.866-1.026-1.746-2.23-2.412-3.512C2.975 11.059 2.5 9.658 2.5 8.25 2.5 3.876 5.84.5 10 .5M10 2C6.704 2 4 4.668 4 8.25c0 1.08.368 2.237.97 3.395.599 1.152 1.406 2.263 2.228 3.239A29 29 0 0 0 10 17.758a28.893 28.893 0 0 0 2.802-2.874c.822-.976 1.628-2.087 2.227-3.24.602-1.157.971-2.313.971-3.394C16 4.668 13.296 2 10 2m0 2.5a3.5 3.5 0 1 1 0 7 3.5 3.5 0 0 1 0-7M10 6a2 2 0 1 0 0 4 2 2 0 0 0 0-4"/></svg>
